X:1
T:Solnedgang
T:Solnedgang
T:F. J. Hansen
T:Johan Gottfried Conradi
C:Johan Gottfried Conradi
%%score [ 1 2 3 4 ]
L:1/8
Q:1/4=92
M:2/2
K:C
V:1 treble-8 nm="T1"
V:2 treble-8 nm="T2"
V:3 bass nm="B1"
V:4 bass nm="B2"
V:1
!p!"^Andante sostenuto" c2 |!<(! e6 e2!<)! |"^cresc." f3 f e2 c2 |!>(! g6 f2!>)! | e6!pp! e2 | %5
w: 1.Det|spre- des|mer og mer det|dunk- le|Graa, mildt|
w: 2.Hvor|dej- lig|skin- ner Ve- sten|o- ver|Muld! det|
w: 3.Fred|mel- lem|Men- ne- sker, Guds|Fred paa|Jord! hans|
 e3 e e2 d2 |!<(! c2 ^c2!<)! (df) (ed) |!>(! c8!>)! | B6!p! A2 | ^G2 B2 A2 B2 |!<(! c6 c2!<)! | %11
w: Af- ten- so- len|ser paa grøn- * ne _|Stran-|de; Hav-|fla- * den _|sam- ler|
w: er som Him- len|hist i Af- * ten- *|stil-|le op-|sam- * led _|i sit|
w: Dug paa hver u-|skyl- dig Blomst _ her- *|ne-|de! Du|gyld- * ne _|Sol, som|
"^cresc." d2 d2 g3 f | e6!f! c2 | a3 a!>(! g2 g2!>)! |"^dim." f2 A2 e2 d2 |"^morendo" (c4 B4) | %16
w: op det smuk- ke|Blaa, som|svøm- med Him- len|paa de stil- le|Van- *|
w: Skjød alt Jor- dens|Guld, at|ej det skul- de|Brø- dres Hjer- ter|skil- *|
w: da- ler mild og|stor, o,|dal ej o- ver|no- gen Bro- ders|Vre- *|
 c6 |] %17
w: de.|
w: le.|
w: de!|
V:2
!p! G2 |!<(! c6 c2!<)! |"^cresc." c3 c c2 B2 |!>(! c4 G4!>)! | G6!pp! c2 | c3 c B2 B2 | %6
w: 1.Det|spre- des|mer og mer det|dunk- le|Graa, mildt|Af- ten- so- len|
w: 2.Hvor|dej- lig|skin- ner Ve- sten|o- ver|Muld! det|er som Him- len|
w: 3.Fred|mel- lem|Men- ne- sker, Guds|Fred paa|Jord! hans|Dug paa hver u-|
!<(! A2 _B2!<)! A2 A2 |!>(! (G2 EF G2 ^F2)!>)! | G4!p! ^F4 | E2 ^G2 ^F2 G2 |!<(! A6 A2!<)! | %11
w: ser paa grøn- ne|Stran- * * * *|de; Hav-|fla- * den _|sam- ler|
w: hist i Af- ten-|stil- * * * *|le op-|sam- * led _|i sit|
w: skyl- dig Blomst her-|ne- * * * *|de! Du|gyld- * ne _|Sol, som|
"^cresc." B2 B2 d2 G2 | c6!f! c2 | c3 c!>(! ^c2 c2!>)! |"^dim." d2 A2 A2 A2 |"^morendo" (G6 F2) | %16
w: op det smuk- ke|Blaa, som|svøm- med Him- len|paa de stil- le|Van- *|
w: Skjød alt Jor- dens|Guld, at|ej det skul- de|Brø- dres Hjer- ter|skil- *|
w: da- ler mild og|stor, o,|dal ej o- ver|no- gen Bro- ders|Vre- *|
 E6 |] %17
w: de.|
w: le.|
w: de!|
V:3
!p! E,2 |!<(! G,6 G,2!<)! |"^cresc." A,3 A, G,2 G,2 |!>(! G,4 B,4!>)! | C6!pp! G,2 | %5
w: 1.Det|spre- des|mer og mer det|dunk- le|Graa, mildt|
w: 2.Hvor|dej- lig|skin- ner Ve- sten|o- ver|Muld! det|
w: 3.Fred|mel- lem|Men- ne- sker, Guds|Fred paa|Jord! hans|
 A,3 A, E,2 E,2 |!<(! E,2 E,2!<)! F,2 F,2 |!>(! (E,2 C,D, E,2 _E,2)!>)! | D,4!p! ^D,4 | E,4 E,4 | %10
w: Af- ten- so- len|ser paa grøn- ne|Stran- * * * *|de; Hav-|fla- den|
w: er som Him- len|hist i Af- ten-|stil- * * * *|le op-|sam- led|
w: Dug paa hver u-|skyl- dig Blomst her-|ne- * * * *|de! Du|gyld- ne|
!<(! E,6 E,2!<)! |"^cresc." G,2 G,2 G,2 G,2 | G,6!f! G,2 | F,3 F,!>(! A,2 A,2!>)! | %14
w: sam- ler|op det smuk- ke|Blaa, som|svøm- med Him- len|
w: i sit|Skjød alt Jor- dens|Guld, at|ej det skul- de|
w: Sol, som|da- ler mild og|stor, o,|dal ej o- ver|
"^dim." A,2 F,2 F,2 F,2 |"^morendo" (E,4 D,4) | C,6 |] %17
w: paa de stil- le|Van- *|de.|
w: Brø- dres Hjer- ter|skil- *|le.|
w: no- gen Bro- ders|Vre- *|de!|
V:4
!p! C,2 |!<(! C,6 C,2!<)! |"^cresc." A,3 A, G,2 F,2 |!>(! E,4 D,4!>)! | C,6!pp! C,2 | %5
w: 1.Det|spre- des|mer og mer det|dunk- le|Graa, mildt|
w: 2.Hvor|dej- lig|skin- ner Ve- sten|o- ver|Muld! det|
w: 3.Fred|mel- lem|Men- ne- sker, Guds|Fred paa|Jord! hans|
 A,,3 A,, ^G,,2 G,,2 |!<(! A,,2 =G,,2!<)! F,,2 F,,2 |!>(! G,,8!>)! | G,,4!p! B,,4 | E,4 E,4 | %10
w: Af- ten- so- len|ser paa grøn- ne|Stran-|de; Hav-|fla- den|
w: er som Him- len|hist i Af- ten-|stil-|le op-|sam- led|
w: Dug paa hver u-|skyl- dig Blomst her-|ne-|de! Du|gyld- ne|
!<(! A,,6 A,,2!<)! |"^cresc." G,,2 G,,2 B,,2 B,,2 | C,6!f! E,2 | F,3 F,!>(! E,2 E,2!>)! | %14
w: sam- ler|op det smuk- ke|Blaa, som|svøm- med Him- len|
w: i sit|Skjød alt Jor- dens|Guld, at|ej det skul- de|
w: Sol, som|da- ler mild og|stor, o,|dal ej o- ver|
"^dim." D,2 D,2 F,,2 F,,2 |"^morendo" G,,8 | C,6 |] %17
w: paa de stil- le|Van-|de.|
w: Brø- dres Hjer- ter|skil-|le.|
w: no- gen Bro- ders|Vre-|de!|

